packages/elements/bolt-icon/src/svgs/face-happy.svg

<svg enable-background="new 0 0 32 32" viewBox="0 0 32 32" xmlns="http://www.w3.org/2000/svg"><g fill="#151619"><path d="m15.9 21.2c-1.7 0-3.2-.8-4.3-2.1l-1.5 1.1c1.3 1.9 3.5 2.9 5.7 2.9s4.4-1.1 5.7-2.9l-1.5-1.1c-.9 1.3-2.4 2.1-4.1 2.1z"/><path d="m12 12.8c0-1.1-.8-1.9-1.9-1.9s-1.9.8-1.9 1.9.8 1.9 1.9 1.9 1.9-1 1.9-1.9z"/><path d="m21.3 10.9c-1.1 0-1.9.8-1.9 1.9s.8 1.9 1.9 1.9 1.9-.8 1.9-1.9-.8-1.9-1.9-1.9z"/><path d="m16 0c-8.8 0-16 7.2-16 16s7.2 16 16 16 16-7.2 16-16-7.2-16-16-16zm0 30.1c-7.7 0-14.1-6.4-14.1-14.1s6.4-14.1 14.1-14.1 14.1 6.4 14.1 14.1-6.4 14.1-14.1 14.1z"/></g></svg>

<?xml version="1.0" encoding="utf-8"?>
<!-- Generator: Adobe Illustrator 25.2.0, SVG Export Plug-In . SVG Version: 6.00 Build 0)  -->
<svg version="1.1" id="Layer_1" xmlns="http://www.w3.org/2000/svg" xmlns:xlink="http://www.w3.org/1999/xlink" x="0px" y="0px"
	 viewBox="0 0 32 32" style="enable-background:new 0 0 32 32;" xml:space="preserve">
<style type="text/css">
	.st0{fill:#151619;}
</style>
<g>
	<path class="st0" d="M15.9,21.2c-1.7,0-3.2-0.8-4.3-2.1l-1.5,1.1c1.3,1.9,3.5,2.9,5.7,2.9s4.4-1.1,5.7-2.9l-1.5-1.1
		C19.1,20.4,17.6,21.2,15.9,21.2z"/>
	<path class="st0" d="M12,12.8c0-1.1-0.8-1.9-1.9-1.9s-1.9,0.8-1.9,1.9s0.8,1.9,1.9,1.9S12,13.7,12,12.8z"/>
	<path class="st0" d="M21.3,10.9c-1.1,0-1.9,0.8-1.9,1.9s0.8,1.9,1.9,1.9s1.9-0.8,1.9-1.9S22.4,10.9,21.3,10.9z"/>
	<path class="st0" d="M16,0C7.2,0,0,7.2,0,16s7.2,16,16,16s16-7.2,16-16S24.8,0,16,0z M16,30.1C8.3,30.1,1.9,23.7,1.9,16
		S8.3,1.9,16,1.9S30.1,8.3,30.1,16S23.7,30.1,16,30.1z"/>
</g>
</svg>
